icons/bitballoon.svg

<?xml version="1.0" encoding="UTF-8" standalone="no"?>
<svg width="256px" height="442px" viewBox="0 0 256 442" version="1.1" xmlns="http://www.w3.org/2000/svg" xmlns:xlink="http://www.w3.org/1999/xlink" preserveAspectRatio="xMidYMid">
    <g fill-rule="evenodd">
        <path d="M138.226194,5.68434189e-14 C90.1846403,6.0566334 57.2560609,27.2133427 31.3264603,55.376 C29.4134603,60.693 25.3314603,63.833 22.8894603,68.629 C19.5694603,72.936 16.2734603,77.262 14.4604603,83.085 C11.3694603,87.227 8.96746032,92.05 7.23846032,97.54 C3.93046032,101.871 4.01446032,109.586 1.20446032,114.409 C2.05446032,122.497 -0.0355396813,127.633 0.000460318728,134.892 C0.358460319,152.062 4.51546032,165.875 9.64046032,178.262 C14.8494603,190.841 20.5474603,202.445 27.7214603,213.2 C34.5014603,224.07 42.9624603,233.293 51.8044603,242.107 C56.8484603,245.912 60.4214603,251.157 66.2674603,254.16 C71.2394603,258.418 75.3414603,263.555 81.9144603,266.21 C84.0834603,270.079 86.2004603,273.973 89.1474603,277.044 C93.1814603,277.846 95.0464603,280.802 98.7914603,281.868 C101.36146,284.13 106.45846,283.833 108.43146,286.684 C112.21646,286.095 112.68546,288.865 116.86046,287.899 C117.69046,290.269 123.58046,287.602 124.08546,290.309 C119.69946,302.154 108.15046,317.717 115.66146,333.676 C120.87446,334.927 125.88246,337.269 130.10846,333.676 C135.59846,333.495 139.24346,326.55 144.58046,330.063 L144.58046,345.725 C139.27946,353.825 124.07846,350.822 113.25146,352.951 C104.62246,350.734 94.3254603,350.188 83.1294603,350.541 C76.6294603,354.475 71.4044603,359.704 67.4714603,366.203 C65.8594603,374.957 65.2334603,387.997 68.6694603,395.119 C80.3744603,416.748 108.60846,421.852 142.16646,421.615 C143.56946,420.613 145.39446,420.032 148.18846,420.412 C165.98446,412.124 189.51046,409.526 216.85746,410.773 C221.17246,414.097 224.99746,417.894 227.70446,422.822 C229.56046,424.571 228.75846,428.994 228.89946,432.462 C228.13746,437.246 230.43446,438.962 232.51146,440.895 C237.92446,441.893 237.90046,437.446 240.95246,436.079 L240.95246,422.822 C237.93746,413.391 232.26746,406.607 225.28246,401.141 C223.05646,400.973 221.26446,400.347 220.47446,398.731 C218.66946,398.523 216.03146,399.156 215.65846,397.524 C187.53746,396.758 164.15946,396.562 143.37246,404.758 C123.72846,405.516 106.38546,403.984 92.7724603,398.731 C88.7144603,394.753 83.7224603,391.722 81.9174603,385.475 C81.8294603,378.141 81.2124603,370.309 85.5354603,367.402 C91.8384603,362.374 101.12546,365.818 109.63446,366.199 C119.24546,366.616 128.92946,365.874 138.54546,366.199 C140.03346,364.463 142.69546,363.914 145.78746,363.789 C149.51246,359.875 154.83746,357.586 156.62146,351.736 C159.71346,349.197 158.98746,342.846 159.03146,337.28 C163.17346,337.81 165.79646,336.803 168.66346,336.077 C170.53146,332.713 169.77446,326.73 174.70646,326.446 C181.96346,327.111 188.72046,332.3 196.38346,328.856 C197.77446,324.93 198.64046,315.74 196.38346,311.986 C194.18646,307.748 190.51246,304.993 189.14546,299.937 C184.57446,298.084 184.08146,292.154 179.50246,290.305 C180.08346,286.52 176.26146,287.114 175.90046,284.278 C174.54946,284.022 174.01246,282.939 173.49546,281.864 C172.18046,281.584 170.59646,279.896 172.28046,279.459 L172.27946,279.458 C184.71446,272.621 194.63046,263.274 204.81546,254.16 C220.03346,232.029 231.42446,206.074 240.95646,178.262 C251.77146,151.5 258.00646,118.691 255.41646,81.881 C252.79346,66.828 250.13946,51.819 242.15546,42.127 C236.65046,29.565 225.78746,22.355 216.85346,13.209 C204.60548,7.49652289 191.913878,2.22470353 176.182999,5.68434189e-14 L138.226194,0 L138.226194,5.68434189e-14 Z M165.05846,263.803 C176.73146,254.596 191.56846,248.554 193.98546,230.072 C196.53146,228.207 199.34646,226.603 202.41046,225.248 C214.96546,192.42 228.90746,160.99 234.94246,121.642 L234.94246,81.888 C232.55646,57.36 219.62546,43.394 206.01946,30.085 C192.92346,23.509 177.34046,19.411 157.82546,19.239 C152.36746,21.408 143.43346,20.096 136.15146,20.445 C85.7674603,27.904 53.3404603,53.314 32.5294603,90.329 C31.7754603,96.392 31.1414603,102.583 30.1274603,108.389 L30.1274603,126.47 C30.2714603,132.34 29.2484603,139.394 32.5294603,142.12 C34.7864603,132.18 40.5244603,116.088 51.8124603,122.845 C52.6144603,128.471 49.9114603,130.592 49.4024603,134.898 C46.9284603,137.232 47.0764603,142.196 44.5864603,144.538 C43.7524603,153.741 41.0054603,161.03 40.9694603,171.043 C43.3474603,177.9 46.8794603,183.598 50.6134603,189.115 C52.3494603,178.798 55.4644603,169.856 59.0414603,161.403 C61.4964603,161.047 61.4074603,158.148 63.8614603,157.791 C64.2514603,156.387 67.5994603,152.117 68.6774603,155.373 C68.4494603,164.379 63.4244603,168.59 63.8614603,178.269 C61.8254603,180.655 62.5424603,185.784 61.4484603,189.116 C62.0374603,194.529 60.8304603,198.138 60.2444603,202.36 C63.4244603,209.225 68.1884603,214.502 73.5054603,219.23 C76.8574603,212.549 78.2254603,203.88 87.9604603,203.567 C89.9814603,212.245 84.0194603,222.767 85.5384603,234.893 C89.0394603,239.833 92.6124603,244.697 98.7994603,246.938 C101.65846,243.382 101.82646,237.118 108.43846,237.299 C114.57446,239.191 113.18246,248.619 113.25446,256.586 C118.19846,260.873 125.45246,262.862 128.91346,268.628 C129.88746,269.434 130.46946,276.479 132.53046,272.236 C129.82746,271.719 132.04846,266.306 131.31446,263.808 C134.09346,260.953 134.56346,255.808 140.95046,256.582 C145.18146,257.572 146.84146,261.141 146.98146,266.213 C152.40246,264.072 157.94446,260.964 165.05746,263.803 L165.05846,263.803 L165.05846,263.803 Z M184.33746,315.606 C178.56346,307.723 171.33346,301.295 165.06146,293.913 C158.31746,292.614 153.74946,289.157 148.19246,286.683 C151.47246,295.529 146.62846,302.542 146.98546,311.989 C154.86846,310.935 156.03946,316.601 161.44046,318.012 C163.74246,316.296 164.89746,313.437 168.66246,313.196 C175.41546,312.475 180.07046,313.834 184.33746,315.606 C185.06646,317.355 185.78846,315.486 184.33746,315.606 L184.33746,315.606 Z" fill="#173148"></path>
    </g>
</svg>

<svg xmlns="http://www.w3.org/2000/svg" viewBox="0 0 256.001 441.04">
  <path fill="#173148" fill-rule="evenodd" d="M138.226 0c-48.041 6.057-80.97 27.213-106.9 55.376-1.913 5.317-5.995 8.457-8.437 13.253-3.32 4.307-6.616 8.633-8.429 14.456-3.09 4.142-5.493 8.965-7.222 14.455-3.308 4.331-3.224 12.046-6.034 16.869.85 8.088-1.24 13.224-1.204 20.483.358 17.17 4.515 30.983 9.64 43.37 5.21 12.579 10.907 24.183 18.081 34.938 6.78 10.87 15.241 20.093 24.083 28.907 5.044 3.805 8.617 9.05 14.463 12.053 4.972 4.258 9.074 9.395 15.647 12.05 2.17 3.869 4.286 7.763 7.233 10.834 4.034.802 5.9 3.758 9.644 4.824 2.57 2.262 7.667 1.965 9.64 4.816 3.785-.589 4.254 2.181 8.43 1.215.83 2.37 6.72-.297 7.224 2.41-4.386 11.845-15.935 27.408-8.424 43.367 5.213 1.251 10.221 3.593 14.447 0 5.49-.181 9.135-7.126 14.472-3.613v15.662c-5.3 8.1-20.502 5.097-31.329 7.226-8.629-2.217-18.926-2.763-30.122-2.41-6.5 3.934-11.725 9.163-15.658 15.662-1.612 8.754-2.238 21.794 1.198 28.916 11.705 21.629 39.94 26.733 73.497 26.496 1.403-1.002 3.228-1.583 6.022-1.203 17.796-8.288 41.322-10.886 68.67-9.639 4.314 3.324 8.14 7.121 10.846 12.049 1.856 1.749 1.054 6.172 1.195 9.64-.762 4.784 1.535 6.5 3.612 8.433 5.413.998 5.39-3.449 8.441-4.816v-13.257c-3.015-9.431-8.685-16.215-15.67-21.681-2.226-.168-4.018-.794-4.808-2.41-1.805-.208-4.443.425-4.816-1.207-28.12-.766-51.499-.962-72.286 7.234-19.644.758-36.987-.774-50.6-6.027-4.058-3.978-9.05-7.009-10.855-13.256-.088-7.334-.705-15.166 3.618-18.073 6.303-5.028 15.59-1.584 24.1-1.203 9.61.417 19.294-.325 28.91 0 1.488-1.736 4.15-2.285 7.242-2.41 3.725-3.914 9.05-6.203 10.834-12.053 3.092-2.539 2.366-8.89 2.41-14.456 4.142.53 6.765-.477 9.632-1.203 1.868-3.364 1.111-9.347 6.043-9.631 7.257.665 14.014 5.854 21.677 2.41 1.391-3.926 2.257-13.116 0-16.87-2.197-4.238-5.87-6.993-7.238-12.049-4.57-1.853-5.064-7.783-9.643-9.632.581-3.785-3.24-3.191-3.602-6.027-1.35-.256-1.888-1.339-2.405-2.414-1.315-.28-2.899-1.968-1.215-2.405v-.001c12.434-6.837 22.35-16.184 32.535-25.298 15.218-22.131 26.61-48.086 36.141-75.898 10.815-26.762 17.05-59.571 14.46-96.381-2.623-15.053-5.277-30.062-13.26-39.754-5.506-12.562-16.369-19.772-25.303-28.918C204.605 7.497 191.913 2.225 176.183 0zm26.832 263.803c11.673-9.207 26.51-15.249 28.927-33.731 2.546-1.865 5.361-3.469 8.425-4.824 12.555-32.828 26.497-64.258 32.532-103.606V81.888c-2.386-24.528-15.317-38.494-28.923-51.803-13.096-6.576-28.679-10.674-48.194-10.846-5.458 2.169-14.392.857-21.674 1.206-50.384 7.459-82.81 32.869-103.622 69.884-.754 6.063-1.388 12.254-2.402 18.06v18.081c.144 5.87-.879 12.924 2.402 15.65 2.257-9.94 7.995-26.032 19.283-19.275.802 5.626-1.9 7.747-2.41 12.053-2.474 2.334-2.326 7.298-4.816 9.64-.834 9.203-3.58 16.492-3.617 26.505 2.378 6.857 5.91 12.555 9.644 18.072 1.736-10.317 4.851-19.259 8.428-27.712 2.455-.356 2.366-3.255 4.82-3.612.39-1.404 3.738-5.674 4.816-2.418-.228 9.006-5.253 13.217-4.816 22.896-2.036 2.386-1.319 7.515-2.413 10.847.59 5.413-.618 9.022-1.204 13.244 3.18 6.865 7.944 12.142 13.261 16.87 3.352-6.681 4.72-15.35 14.455-15.663 2.021 8.678-3.94 19.2-2.422 31.326 3.501 4.94 7.074 9.804 13.261 12.045 2.86-3.556 3.027-9.82 9.64-9.639 6.135 1.892 4.743 11.32 4.815 19.287 4.944 4.287 12.198 6.276 15.66 12.042.973.806 1.555 7.851 3.616 3.608-2.703-.517-.482-5.93-1.216-8.428 2.78-2.855 3.25-8 9.636-7.226 4.231.99 5.891 4.559 6.031 9.631 5.421-2.141 10.963-5.249 18.076-2.41zm19.28 51.803c-5.775-7.883-13.005-14.311-19.277-21.693-6.744-1.299-11.312-4.756-16.869-7.23 3.28 8.846-1.564 15.859-1.207 25.306 7.883-1.054 9.054 4.612 14.455 6.023 2.302-1.716 3.457-4.575 7.222-4.816 6.753-.721 11.408.638 15.675 2.41.73 1.749 1.451-.12 0 0z"/>
</svg>
